X:1
T:Giova mai sempre
T:Giammateo Asola
T:Source : Madrigali a due voci---Venetia---G.Vincenti---1587. Editor : André Vierendeels (20/04/17) 
T:Notes : Original clefs : C1  ( Fuga di un tempo perfetto, una ottava piu bassa) Editorial accidentals above the staff m 14 and 16, first "F" notated as half note in original print 
T:Giova mai sempre
T:©
T:©
T:©
C:Giammateo Asola
Z:©
%%score [ 1 2 ]
L:1/8
Q:1/4=120
M:3/2
K:F
V:1 treble nm="Soprano" snm="S"
V:2 treble-8 nm="Tenor" snm="T"
V:1
 G4 B4 c4 | d8 c4 | B6 A2 G4 | F4 F4 G4 | d6 c2 B4 | A8 G4 | A8 z4 | c4 c4 B4 | A6 G2 F4 | %9
w: Gio- va mai|sem- pr'e|por- * *|ge, per Dio|to- sto soc-|cor- *|so,|mos- so'a pie-|ta- * *|
 E6 F2 G4 | A4 A4 A4 | G6 F2 D2 E2 | F2 G2 A4 F4 | G2 F2 D2 E2 F2 G2 | A2 B2 c8 | B4 A6 G2 | %16
w: te _ _|o- ve'il bi-|so- * * *|* * * gn'o-|scor- * * * * *|||
 F4 E8 | D4 A4 E4 | F4 G8 | F4 E8 | D8 z4 | A4 A4 G4 | F6 G2 A2 B2 | c8 B4 | A4 c6 B2 | A8 G4 | %26
w: |ge, met- te|tal ho-|ra'il mor-|so,|con dol- ce|ca- * * *|* ro'a-|vi- * *||
 A8 z4 | c4 c4 B4 | A4 c6 B2 | A8 G4 | A8 z4 | A4 c4 B4 | A6 G2 F4 | E8 D4 | z4 A6 A2 | G4 G4 F4 | %36
w: so,|a dhi- nel|vi- tio _|_ fi-|so,|cor- rea dian-|zi a la|mor- te,|giun- to|gia de l'in-|
 G4 E4 F4 | G4 A8 | G8 z4 | G6 F2 F4 | G4 B4 A4 | G4 A2 B2 c2 A2 | B2 c2 d2 B2 c4 | B4 A8 | %44
w: fer- no'in su|le por-|te,|giun- to gia|de l'in- fer-|no'in su- * * *||le por-|
 G4 F4 E2 F2 | G8 F4 | G12 |] %47
w: te, in su le|por- *|te.|
V:2
 z12 | z12 | G4 B4 c4 | d8 c4 | B6 A2 G4 | F4 F4 G4 | d6 c2 B4 | A8 G4 | A8 z4 | c4 c4 B4 | %10
w: ||Gio- va mai|sem- pr'e|por- * *|ge, per Dio|to- sto soc-|cor- *|so,|mos- so'a pie-|
 A6 G2 F4 | E6 F2 G4 | A4 A4 A4 | G6 F2 D2 E2 | F2 G2 A4 F4 | G2 F2 D2 E2 F2 G2 | A2 B2 c8 | %17
w: ta- * *|te _ _|o- ve'il bi-|so- * * *|* * * gn'o-|scor- * * * * *||
 B4 A6 G2 | F4 E8 | D4 A4 E4 | F4 G8 | F4 E8 | D8 z4 | A4 A4 G4 | F6 G2 A2 B2 | c8 B4 | A4 c6 B2 | %27
w: ||ge, met- te|tal ho-|ra'il mor-|so,|con dol- ce|ca- * * *|* ro'a-|vi- * *|
 A8 G4 | A8 z4 | c4 c4 B4 | A4 c6 B2 | A8 G4 | A8 z4 | A4 c4 B4 | A6 G2 F4 | E8 D4 | z4 A6 A2 | %37
w: |so,|a dhi- nel|vi- tio _|_ fi-|so,|cor- rea dian-|zi a la|mor- te,|giun- to|
 G4 G4 F4 | G4 E4 F4 | G4 A8 | G8 z4 | G6 F2 F4 | G4 B4 A4 | G4 A2 B2 c2 A2 | B2 c2 d2 B2 c4 | %45
w: gia de l'in-|fer- no'in su|me por-|te,|giun- to gia|de l'in- fer-|no'in su- * * *||
 B4 A8 |"^#" G12 |] %47
w: le por-|te.|

